src/images/fire.svg

<svg viewBox="0 0 398 445" xmlns="http://www.w3.org/2000/svg">
<g clip-path="url(#clip0)">
<path
      d="M372.507 303.586C367.685 291.965 361.035 280.521 351.31 267.304C326.788 234.127 319.307 160.144 319.224 159.434C318.891 155.886 316.564 152.958 313.488 151.894C310.329 150.829 306.921 151.805 304.677 154.466C275.417 189.684 287.719 244.062 294.369 265.796C296.198 271.739 298.193 278.747 299.605 285.844C310.411 343.238 289.547 369.23 284.643 374.464C279.905 375.883 276.663 375.173 273.67 371.714C263.363 359.561 259.955 319.73 264.776 267.836C265.774 257.28 265.524 247.788 264.111 238.917C253.943 175.133 216.661 134.219 207.17 119.87C181.069 78.3544 178.409 9.25043 178.326 8.62947C178.243 5.34725 176.497 2.41987 173.754 1.00053C171.094 -0.418809 167.852 -0.241391 165.358 1.62149C121.801 33.4679 125.542 110.201 131.61 153.047C133.023 162.982 135.766 173.095 140.504 185.869C157.378 231.554 137.179 290.545 137.013 291.078C136.847 291.61 136.68 292.053 136.597 292.586C134.02 307.134 129.698 315.827 124.877 315.827C124.378 315.827 123.879 315.739 123.297 315.561C117.395 314.231 114.32 307.489 114.237 301.634C113.904 225.966 43.3309 200.506 42.5828 200.24C39.4241 199.176 35.9328 200.151 33.7716 202.901C31.5272 205.651 31.1116 209.466 32.6078 212.659C33.4391 214.522 36.0991 222.683 34.2703 251.514C32.6909 277.417 28.2853 303.053 21.2197 327.626C4.42844 386.528 7.08843 442.326 7.25468 444.987C20.1665 596.064 222.082 622.536 341.916 537.421C355.05 528.107 365.773 517.462 373.67 505.752C417.893 440.108 391.875 350.956 372.507 303.586ZM65.3599 447.914C65.6093 452.793 62.118 456.963 57.5461 457.229H57.0474C52.6418 457.229 48.9843 453.592 48.7349 448.89C47.9868 435.939 48.153 422.366 49.0674 407.641C49.3999 402.762 53.3899 399.125 57.9618 399.39C62.5336 399.745 66.0249 404.003 65.6924 408.882C64.7772 422.899 64.6118 435.673 65.3599 447.914ZM69.4322 369.319C68.9334 373.843 65.3591 377.125 61.2028 377.125C60.8703 377.125 60.5378 377.125 60.1222 377.036C55.6334 376.415 52.3916 372.069 52.8903 367.19L56.8803 332.948C57.4622 328.158 61.5353 324.698 66.1903 325.23C70.7622 325.851 74.0041 330.287 73.4222 335.166L69.4322 369.319Z"
      fill="#3D3D3D"
    />
<path
      d="M316.269 121.362C311.736 120.613 308.627 116.091 309.325 111.253C309.844 107.649 312.848 89.1974 320.998 79.9194C324.135 76.3418 329.388 76.1555 332.749 79.5166C336.097 82.8645 336.267 88.4789 333.126 92.0565C329.676 95.9854 326.737 107.229 325.755 113.957C325.054 118.744 320.87 122.103 316.269 121.362Z"
      fill="#3D3D3D"
    />
<path
      d="M13.2282 165.55C11.6372 158.952 7.68377 148.072 3.88911 144.52C0.435266 141.289 0.0902959 135.684 3.11771 132.003C6.13764 128.312 11.3853 127.935 14.8475 131.179C23.805 139.561 28.485 157.61 29.3337 161.14C30.47 165.883 27.7917 170.708 23.3512 171.929C18.8125 173.147 14.3595 170.214 13.2282 165.55Z"
      fill="#3D3D3D"
    />
</g>
<defs>
<clipPath id="clip0">
<rect width="399" height="445" fill="white" />
</clipPath>
</defs>
</svg>

<svg viewBox="0 0 398 445" xmlns="http://www.w3.org/2000/svg"><g clip-path="url(#clip0)" fill="#3D3D3D"><path d="M372.507 303.586c-4.822-11.621-11.472-23.065-21.197-36.282-24.522-33.177-32.003-107.16-32.086-107.87-.333-3.548-2.66-6.476-5.736-7.54-3.159-1.065-6.567-.089-8.811 2.572-29.26 35.218-16.958 89.596-10.308 111.33 1.829 5.943 3.824 12.951 5.236 20.048 10.806 57.394-10.058 83.386-14.962 88.62-4.738 1.419-7.98.709-10.973-2.75-10.307-12.153-13.715-51.984-8.894-103.878.998-10.556.748-20.048-.665-28.919-10.168-63.784-47.45-104.698-56.941-119.047C181.069 78.354 178.409 9.25 178.326 8.63c-.083-3.283-1.829-6.21-4.572-7.63-2.66-1.419-5.902-1.241-8.396.621-43.557 31.847-39.816 108.58-33.748 151.426 1.413 9.935 4.156 20.048 8.894 32.822 16.874 45.685-3.325 104.676-3.491 105.209-.166.532-.333.975-.416 1.508-2.577 14.548-6.899 23.241-11.72 23.241-.499 0-.998-.088-1.58-.266-5.902-1.33-8.977-8.072-9.06-13.927-.333-75.668-70.906-101.128-71.654-101.394-3.159-1.064-6.65-.089-8.811 2.661-2.245 2.75-2.66 6.565-1.164 9.758.831 1.863 3.491 10.024 1.662 38.855-1.58 25.903-5.985 51.539-13.05 76.112-16.792 58.902-14.132 114.7-13.965 117.361 12.912 151.077 214.827 177.549 334.661 92.434 13.134-9.314 23.857-19.959 31.754-31.669 44.223-65.644 18.205-154.796-1.163-202.166zM65.36 447.914c.25 4.879-3.242 9.049-7.814 9.315h-.499c-4.405 0-8.063-3.637-8.312-8.339-.748-12.951-.582-26.524.332-41.249.333-4.879 4.323-8.516 8.895-8.251 4.572.355 8.063 4.613 7.73 9.492-.915 14.017-1.08 26.791-.332 39.032zm4.072-78.595c-.499 4.524-4.073 7.806-8.23 7.806-.332 0-.664 0-1.08-.089-4.489-.621-7.73-4.967-7.232-9.846l3.99-34.242c.582-4.79 4.655-8.25 9.31-7.718 4.572.621 7.814 5.057 7.232 9.936l-3.99 34.153zM316.269 121.362c-4.533-.749-7.642-5.271-6.944-10.109.519-3.604 3.523-22.056 11.673-31.334 3.137-3.577 8.39-3.763 11.751-.402 3.348 3.348 3.518 8.962.377 12.54-3.45 3.928-6.389 15.172-7.371 21.9-.701 4.787-4.885 8.146-9.486 7.405zM13.228 165.55c-1.59-6.598-5.544-17.478-9.339-21.03-3.454-3.231-3.799-8.836-.771-12.517 3.02-3.691 8.267-4.068 11.73-.824 8.957 8.382 13.637 26.431 14.486 29.961 1.136 4.743-1.542 9.568-5.983 10.789-4.538 1.218-8.991-1.715-10.123-6.379z"/></g><defs><clipPath id="clip0"><path fill="#fff" d="M0 0h399v445H0z"/></clipPath></defs></svg>
